wp-content/themes/watts/images/sp-01-two.svg

<svg height="67.5" viewBox="0 0 90.3 67.5" width="90.3" xmlns="http://www.w3.org/2000/svg" xmlns:xlink="http://www.w3.org/1999/xlink"><linearGradient id="a" gradientTransform="matrix(1 0 0 -1 0 92)" gradientUnits="userSpaceOnUse" x1="11.3" x2="78.85" y1="92.1" y2="24.55"><stop offset="0" stop-color="#0750e0"/><stop offset="1" stop-color="#1d3ec0"/></linearGradient><path d="m90 11.2a67.52 67.52 0 0 0 -26.3 5.3 70.74 70.74 0 0 0 -11.5 6.2 66 66 0 0 0 -7.2 5.6 77.19 77.19 0 0 0 -7.2-5.6 70.74 70.74 0 0 0 -11.5-6.2 67.52 67.52 0 0 0 -26.3-5.3v7.5a60.06 60.06 0 0 1 39.7 15 77.19 77.19 0 0 0 -5.6 7.2 17.39 17.39 0 0 0 -1.1 1.8 50.05 50.05 0 0 0 -14-8.8 47.51 47.51 0 0 0 -19-3.9v7.5a41.38 41.38 0 0 1 29.1 12c-.5 1-.9 1.9-1.3 2.9a62.21 62.21 0 0 0 -3.1 9.2 33.63 33.63 0 0 0 -3.4-4.1 30.6 30.6 0 0 0 -9.5-6.4 31.78 31.78 0 0 0 -11.8-2.3v7.5a22.43 22.43 0 0 1 22.4 22.4h7.6a61.17 61.17 0 0 1 4.4-22.7 41.27 41.27 0 0 1 6.8 21.1v1.6h7.7v-1.6a41.27 41.27 0 0 1 6.8-21.1 58.87 58.87 0 0 1 4.4 22.7h7.5a22.43 22.43 0 0 1 22.4-22.4v-7.5a30.15 30.15 0 0 0 -21.2 8.8 26.44 26.44 0 0 0 -3.4 4.1 76.52 76.52 0 0 0 -3.1-9.2c-.4-1-.8-1.9-1.3-2.9a41.21 41.21 0 0 1 29.1-12v-7.6a49.19 49.19 0 0 0 -19 3.8 46.68 46.68 0 0 0 -13.8 8.9 17.39 17.39 0 0 1 -1.1-1.8 66 66 0 0 0 -5.6-7.2 60.06 60.06 0 0 1 39.7-15v-7.5zm-45 48.6a54.57 54.57 0 0 0 -6.8-11.4 62.4 62.4 0 0 1 6.8-9.4 57.73 57.73 0 0 1 6.8 9.4 50.58 50.58 0 0 0 -6.8 11.4z" fill="url(#a)" transform="translate(0 -11.2)"/></svg>

<svg id="_ÎÓÈ_1" data-name="—ÎÓÈ_1" xmlns="http://www.w3.org/2000/svg" xmlns:xlink="http://www.w3.org/1999/xlink" width="90.3" height="67.5" viewBox="0 0 90.3 67.5">
  <defs>
    <style>
      .cls-1 {
        fill: url(#linear-gradient);
      }
    </style>
    <linearGradient id="linear-gradient" x1="11.3" y1="92.1" x2="78.85" y2="24.55" gradientTransform="matrix(1, 0, 0, -1, 0, 92)" gradientUnits="userSpaceOnUse">
      <stop offset="0" stop-color="#0750e0"/>
      <stop offset="1" stop-color="#1d3ec0"/>
    </linearGradient>
  </defs>
  <title>sp-01-two</title>
  <path class="cls-1" d="M90,11.2a67.52,67.52,0,0,0-26.3,5.3,70.74,70.74,0,0,0-11.5,6.2A66,66,0,0,0,45,28.3a77.19,77.19,0,0,0-7.2-5.6,70.74,70.74,0,0,0-11.5-6.2A67.52,67.52,0,0,0,0,11.2v7.5a60.06,60.06,0,0,1,39.7,15,77.19,77.19,0,0,0-5.6,7.2A17.39,17.39,0,0,0,33,42.7a50.05,50.05,0,0,0-14-8.8A47.51,47.51,0,0,0,0,30v7.5a41.38,41.38,0,0,1,29.1,12c-.5,1-.9,1.9-1.3,2.9a62.21,62.21,0,0,0-3.1,9.2,33.63,33.63,0,0,0-3.4-4.1,30.6,30.6,0,0,0-9.5-6.4A31.78,31.78,0,0,0,0,48.8v7.5A22.43,22.43,0,0,1,22.4,78.7H30A61.17,61.17,0,0,1,34.4,56a41.27,41.27,0,0,1,6.8,21.1v1.6h7.7V77.1A41.27,41.27,0,0,1,55.7,56a58.87,58.87,0,0,1,4.4,22.7h7.5A22.43,22.43,0,0,1,90,56.3V48.8a30.15,30.15,0,0,0-21.2,8.8,26.44,26.44,0,0,0-3.4,4.1,76.52,76.52,0,0,0-3.1-9.2c-.4-1-.8-1.9-1.3-2.9a41.21,41.21,0,0,1,29.1-12V30a49.19,49.19,0,0,0-19,3.8,46.68,46.68,0,0,0-13.8,8.9,17.39,17.39,0,0,1-1.1-1.8,66,66,0,0,0-5.6-7.2,60.06,60.06,0,0,1,39.7-15V11.2ZM45,59.8v0a54.57,54.57,0,0,0-6.8-11.4A62.4,62.4,0,0,1,45,39a57.73,57.73,0,0,1,6.8,9.4A50.58,50.58,0,0,0,45,59.8Z" transform="translate(0 -11.2)"/>
</svg>
